X:2
T:The Rose Tree
M:C|
L:1/8
S:Jack Campin abc:purr.demon.co.uk abcusers 2004-4-2
Q:1/2=112
K:D
fe|d2B2 A2F2|   A4   A2AB|d4   e2de|f2e2 egfe|
   d2B2 A2F2|   A4   A2AB|d4   e2de|f2d2 d2 :|
de|f2e2 f2g2|   a2ba g2f2|e2b2 b2a2|b2e2 egfe|
   d2B2 A2F2|[1 A4   A2AB|d4   e2de|f2d2 d2 :|
             [2 ABAF A2AB|d4   e2de|f2d2 d2 |]
